packages/icons/src/components/Icon/assets/default/partner-space.svg

<svg width="20" height="20" viewBox="0 0 20 20" fill="none" xmlns="http://www.w3.org/2000/svg">
<path fill-rule="evenodd" clip-rule="evenodd" d="M7.08333 7.83333C7.08333 7.41912 7.41912 7.08333 7.83333 7.08333H10.0417C10.4559 7.08333 10.7917 7.41912 10.7917 7.83333C10.7917 8.24755 10.4559 8.58333 10.0417 8.58333H8.58333V16.75H16.75V8.58333H15.2917C14.8775 8.58333 14.5417 8.24755 14.5417 7.83333C14.5417 7.41912 14.8775 7.08333 15.2917 7.08333H17.5C17.9142 7.08333 18.25 7.41912 18.25 7.83333V17.5C18.25 17.9142 17.9142 18.25 17.5 18.25H7.83333C7.41912 18.25 7.08333 17.9142 7.08333 17.5V7.83333Z" fill="#727683"/>
<path fill-rule="evenodd" clip-rule="evenodd" d="M2.25 12.6667C2.25 13.0809 2.58579 13.4167 3 13.4167H5.20833C5.62255 13.4167 5.95833 13.0809 5.95833 12.6667C5.95833 12.2525 5.62255 11.9167 5.20833 11.9167H3.75V3.75H11.9167V11.9167H10.4583C10.0441 11.9167 9.70833 12.2525 9.70833 12.6667C9.70833 13.0809 10.0441 13.4167 10.4583 13.4167H12.6667C13.0809 13.4167 13.4167 13.0809 13.4167 12.6667V3C13.4167 2.58579 13.0809 2.25 12.6667 2.25H3C2.58579 2.25 2.25 2.58579 2.25 3V12.6667Z" fill="#727683"/>
</svg>

<svg xmlns="http://www.w3.org/2000/svg" width="20" height="20" fill="none" viewBox="0 0 20 20">
    <path fill="#727683" fill-rule="evenodd" d="M7.083 7.833a.75.75 0 0 1 .75-.75h2.209a.75.75 0 0 1 0 1.5H8.583v8.167h8.167V8.583h-1.458a.75.75 0 0 1 0-1.5H17.5a.75.75 0 0 1 .75.75V17.5a.75.75 0 0 1-.75.75H7.833a.75.75 0 0 1-.75-.75z" clip-rule="evenodd"/>
    <path fill="#727683" fill-rule="evenodd" d="M2.25 12.667c0 .414.336.75.75.75h2.208a.75.75 0 0 0 0-1.5H3.75V3.75h8.167v8.167h-1.459a.75.75 0 0 0 0 1.5h2.209a.75.75 0 0 0 .75-.75V3a.75.75 0 0 0-.75-.75H3a.75.75 0 0 0-.75.75z" clip-rule="evenodd"/>
</svg>
